X:1
T:Title
%%score { 1 | 2 }
L:1/8
M:4/4
K:Eb
V:1 treble nm="Grand Piano"
V:2 bass 
V:1
 z4[Q:1/4=100] E4 | G2 G2 A2 A2 | B4 G2 B2 | A2 G2 F2 E2 |[M:2/4] [DB]4 | [EB]4 | %6
[M:4/4] [Ge]2 [Ge]2 d2 d2 | c2 c4 [EAc]2 | [EGB]2 [B,GB]2 [B,DA]2 [A,DF]2 |[M:3/4] [G,E]6 | %10
[M:2/4] [GB]2 [GB]2 |[M:4/4] [Ac]2 [GB]2 [EG]2 [GB]2 | [Ge]4 [GB]2 [GB]2 | [Ac]2 [GB]2 G2 E2 | %14
[M:2/4] [DB]4 | [EB]4 |[M:4/4] [Ge]2 [Ge]2 d2 d2 | c2 c4 [EAc]2 | [EGB]2 [B,GB]2 [B,DA]2 [A,DF]2 | %19
[M:3/4] [G,E]6 |] %20
V:2
 z4 [E,G,]4 | [E,B,E]2 [E,B,E]2 [F,B,D]2 [F,B,D]2 | [G,B,E]4 [E,B,E]2 [G,B,E]2 | %3
 [F,B,D]2 [E,B,E]2 [D,B,]2 [C,=A,]2 |[M:2/4] [B,,B,]4 | [E,G,]4 | %6
[M:4/4] [E,B,]2 [E,B,]2[K:treble] [G,=B,F]2 [G,B,F]2 | [A,CE]2 [A,EA]4[K:bass] A,,2 | %8
 B,,2 B,,2 B,,2 B,,2 |[M:3/4] E,6 |[M:2/4] [E,E]2 [E,E]2 |[M:4/4] [E,E]2 [E,E]2 [E,B,]2 [E,B,]2 | %12
 [E,B,]4 [E,E]2 [E,E]2 | [E,E]2 [E,E]2 [E,B,E]2 [E,G,]2 |[M:2/4] [B,,F,]4 | [E,G,]4 | %16
[M:4/4] [E,B,]2 [E,B,]2[K:treble] [G,=B,F]2 [G,B,F]2 | [A,CE]2 [A,EA]4[K:bass] A,,2 | %18
 B,,2 B,,2 B,,2 B,,2 |[M:3/4] E,6 |] %20

